X:1
T:Diadem
M:4/4
L:1/4
B:John R. Dailey & E.W. Thomas, Primitive Baptist Hymn and Tune Book (1902), pp. 12-13
K:G
D|G G G/A/ B|d3/2 e/ d G|B B B G|A3||
w:1.All hail the pow'r_ of Je-sus' name! Let an-gels pros-trate fall:
D|G G G/A/ B|d3/2 e/ d G|B B B A|G3||
w:Bring forth the roy - al di-a-dem, And crown Him Lord of all.
G|c c c e|d3 B/A/|G G G B|A3||
w:And crown Him Lord of all, And_ crown Him Lord of all.
D|G G G/A/ B|d3/2 e/ d G|B B B A|G3|]
w:Bring forth the roy - al di-a-dem, And crown Him Lord of all.
